Newaita-dark/.DP/16/tabletconnected.svg

<svg xmlns="http://www.w3.org/2000/svg" xmlns:xlink="http://www.w3.org/1999/xlink" width="16px" height="16px" viewBox="0 0 16 16" version="1.1">
<g id="surface1">
<path style=" stroke:none;fill-rule:nonzero;fill:rgb(93.333334%,93.333334%,93.333334%);fill-opacity:1;" d="M 2.644531 3.101562 C 2.28125 3.101562 1.984375 3.398438 1.984375 3.761719 L 1.984375 12.363281 C 1.984375 12.730469 2.28125 13.023438 2.644531 13.023438 L 13.230469 13.023438 C 13.597656 13.023438 13.890625 12.730469 13.890625 12.363281 L 13.890625 3.761719 C 13.890625 3.398438 13.597656 3.101562 13.230469 3.101562 Z M 3.636719 4.425781 L 12.238281 4.425781 C 12.421875 4.425781 12.570312 4.574219 12.570312 4.753906 L 12.570312 10.710938 C 12.570312 10.894531 12.421875 11.039062 12.238281 11.039062 L 3.636719 11.039062 C 3.457031 11.039062 3.308594 10.894531 3.308594 10.710938 L 3.308594 4.753906 C 3.308594 4.574219 3.457031 4.425781 3.636719 4.425781 Z M 6.945312 11.703125 L 8.929688 11.703125 C 9.113281 11.703125 9.261719 11.835938 9.261719 12.003906 L 9.261719 12.058594 C 9.261719 12.226562 9.113281 12.363281 8.929688 12.363281 L 6.945312 12.363281 C 6.761719 12.363281 6.613281 12.226562 6.613281 12.058594 L 6.613281 12.003906 C 6.613281 11.835938 6.761719 11.703125 6.945312 11.703125 Z M 6.945312 11.703125 "/>
</g>
</svg>

<svg xmlns="http://www.w3.org/2000/svg" width="16pt" height="16pt" viewBox="0 0 16 16"><path d="M2.645 3.102a.662.662 0 0 0-.66.66v8.601c0 .367.296.66.66.66H13.23c.368 0 .66-.293.66-.66V3.762a.66.66 0 0 0-.66-.66zm.992 1.324h8.601a.33.33 0 0 1 .332.328v5.957a.328.328 0 0 1-.332.328H3.637a.328.328 0 0 1-.328-.328V4.754a.33.33 0 0 1 .328-.328zm3.308 7.277H8.93c.183 0 .332.133.332.3v.056c0 .168-.149.304-.332.304H6.945c-.183 0-.332-.136-.332-.304v-.055c0-.168.149-.3.332-.3zm0 0" fill="#bdbdbd"/></svg>
